packages/icons/src/SVG/globe.svg

<svg width="12" height="12" viewBox="0 0 12 12" >
<path fill-rule="evenodd" clip-rule="evenodd" d="M12 6C12 9.31371 9.31371 12 6 12C2.68629 12 0 9.31371 0 6C0 2.68629 2.68629 0 6 0C9.31371 0 12 2.68629 12 6ZM4.7931 10.8534C4.09331 9.933 3.59407 8.97663 3.30512 8H1.41604C2.03101 9.40751 3.2752 10.4772 4.7931 10.8534ZM1.10003 7H3.08408C3.03534 6.66826 3.01069 6.33489 3.01043 6.0004C3.01018 5.66564 3.03438 5.33198 3.0827 5H1.10003C1.03444 5.32311 1.00001 5.65753 1.00001 6C1.00001 6.34247 1.03444 6.67689 1.10003 7ZM1.41604 4H3.30258C3.5905 3.02365 4.08928 2.06752 4.79025 1.14734C3.27367 1.52419 2.0306 2.59337 1.41604 4ZM4.35237 4H7.61435C7.28564 3.08944 6.7379 2.18087 5.95916 1.29124C5.19731 2.18149 4.66569 3.09006 4.35237 4ZM8.92917 6.99997H10.9C10.9656 6.67686 11 6.34241 11 5.99995C11 5.6575 10.9656 5.32308 10.9 4.99997H8.90296C8.96087 5.36307 8.9899 5.72825 8.98962 6.09473C8.98938 6.39751 8.96914 6.69941 8.92917 6.99997ZM7.29466 10.8307C8.77269 10.4356 9.98092 9.38025 10.584 7.99997H8.72217C8.44956 8.96801 7.97059 9.91669 7.29466 10.8307ZM7.67666 7.99997H4.35521C4.68036 8.94158 5.23821 9.88175 6.04075 10.8017C6.82596 9.88109 7.36731 8.94094 7.67666 7.99997ZM8.66895 3.99996H10.584C9.95739 2.56581 8.67747 1.48241 7.12042 1.12598C7.84535 2.05204 8.36449 3.01545 8.66895 3.99996ZM4.09519 5C4.0382 5.33413 4.01013 5.66762 4.01038 5.99961C4.01061 6.33185 4.03925 6.6656 4.09679 7H7.9186C7.96581 6.69719 7.9893 6.39499 7.98955 6.094C7.98983 5.73077 7.9562 5.36572 7.88785 5H4.09519Z" />
</svg>

<!-- Generated by IcoMoon.io -->
<svg version="1.1" xmlns="http://www.w3.org/2000/svg" width="12" height="12" viewBox="0 0 12 12">
<title>globe</title>
<path d="M12 6c0 3.314-2.686 6-6 6s-6-2.686-6-6c0-3.314 2.686-6 6-6s6 2.686 6 6zM4.793 10.853c-0.7-0.92-1.199-1.877-1.488-2.853h-1.889c0.615 1.408 1.859 2.477 3.377 2.853zM1.1 7h1.984c-0.049-0.332-0.073-0.665-0.074-1s0.024-0.668 0.072-1h-1.983c-0.066 0.323-0.1 0.658-0.1 1s0.034 0.677 0.1 1zM1.416 4h1.887c0.288-0.976 0.787-1.932 1.488-2.853-1.517 0.377-2.76 1.446-3.374 2.853zM4.352 4h3.262c-0.329-0.911-0.876-1.819-1.655-2.709-0.762 0.89-1.293 1.799-1.607 2.709zM8.929 7h1.971c0.066-0.323 0.1-0.658 0.1-1s-0.034-0.677-0.1-1h-1.997c0.058 0.363 0.087 0.728 0.087 1.095-0 0.303-0.020 0.605-0.060 0.905zM7.295 10.831c1.478-0.395 2.686-1.45 3.289-2.831h-1.862c-0.273 0.968-0.752 1.917-1.428 2.831zM7.677 8h-3.321c0.325 0.942 0.883 1.882 1.686 2.802 0.785-0.921 1.327-1.861 1.636-2.802zM8.669 4h1.915c-0.627-1.434-1.907-2.518-3.464-2.874 0.725 0.926 1.244 1.889 1.549 2.874zM4.095 5c-0.057 0.334-0.085 0.668-0.085 1s0.029 0.666 0.086 1h3.822c0.047-0.303 0.071-0.605 0.071-0.906 0-0.363-0.033-0.728-0.102-1.094h-3.793z"></path>
</svg>
